static/img/pages/getQuestdb/nojre.svg

<svg
  fill="none"
  height="49"
  viewBox="0 0 78 51"
  xmlns="http://www.w3.org/2000/svg"
>
  <mask
    height="51"
    id="mask0"
    mask-type="alpha"
    maskUnits="userSpaceOnUse"
    width="51"
    x="16"
    y="0"
  >
    <circle
      cx="41.1744"
      cy="25.8397"
      fill="#C4C4C4"
      r="24.9371"
    />
  </mask>
  <g mask="url(#mask0)">
    <circle
      cx="41.1744"
      cy="25.8397"
      fill="#EC779B"
      r="24.9371"
    />
    <path
      d="M50.0829 -1.05298C50.0829 -1.05298 46.3653 4.19695 33.4603 7.04175C20.5554 9.88655 24.273 15.1365 24.4895 16.6655C24.7061 18.1946 28.2104 19.7302 38.7103 11.6354C49.2101 3.5407 51.6152 1.57198 56.8652 1.35542C62.1151 1.13886 50.0829 -1.05298 50.0829 -1.05298Z"
      fill="#D14671"
    />
    <path
      d="M44.1768 -3.02165C44.1768 -3.02165 41.9915 6.38556 19.4595 5.94916C19.4595 5.94916 40.2393 -3.45805 44.1768 -3.02165Z"
      fill="#D14671"
    />
    <path
      d="M16.6146 9.66651C16.6146 9.66651 22.0844 8.35403 22.0844 10.7592C22.0844 13.1643 19.2396 17.7612 15.0856 17.7612C10.9316 17.7612 16.6146 9.66651 16.6146 9.66651Z"
      fill="#D14671"
    />
    <path
      d="M12.2408 25.4164C12.2408 25.4164 15.9584 17.9779 21.648 19.2904C27.3376 20.6029 31.4916 21.479 40.2393 14.9166C48.987 8.35417 51.1788 4.41673 54.2402 6.82185C57.3016 9.22697 48.5539 17.7614 41.9915 19.2904C35.4291 20.8195 10.0522 25.8528 19.2396 32.4152C28.427 38.9776 43.9602 28.9175 49.4267 21.6988C54.8931 14.4802 59.2703 11.6354 59.9265 15.1364C60.5827 18.6375 53.8038 20.3863 49.4267 25.8528C45.0495 31.3193 29.7394 44.4474 15.522 35.6964C1.30454 26.9455 12.2408 25.4164 12.2408 25.4164Z"
      fill="#D14671"
    />
    <path
      d="M58.8341 5.073C58.8341 5.073 52.708 16.6655 45.4894 19.7301C38.2707 22.7948 18.5835 26.2925 22.521 30.6664C26.4584 35.0402 35.4292 31.1028 41.7718 25.6363C48.1144 20.1698 59.9267 7.04172 63.2079 10.5428C66.4891 14.0438 58.8341 5.073 58.8341 5.073Z"
      fill="#D14671"
    />
    <path
      d="M66.7087 18.1975C66.0525 18.1975 59.49 19.51 54.2401 23.8838C48.9902 28.2577 44.3965 40.7295 21.2083 43.1347L25.3655 46.8523C25.3655 46.8523 24.9291 44.8835 35.6455 42.2586C46.3619 39.6336 50.3027 34.6035 56.4287 26.9485C62.5547 19.2934 66.7087 23.2276 66.7087 23.2276V18.1975Z"
      fill="#D14671"
    />
    <path
      d="M27.5544 50.1336C27.5544 50.1336 30.6158 44.2275 36.522 44.2275C42.4281 44.2275 52.4916 36.5724 55.9893 31.5423C59.4871 26.5123 60.1729 24.0875 61.4591 26.2924C64.5205 31.5423 54.8967 35.6964 48.7707 41.386C42.6447 47.0756 34.9536 44.5162 33.2408 51.2296C31.528 57.9429 55.799 38.0391 57.7415 37.0088C61.4591 35.0401 63.6477 37.0088 63.6477 38.9776C63.6477 40.9463 55.9893 54.2909 47.8979 54.2909C39.8065 54.2909 27.771 54.9472 27.771 51.0097"
      fill="#D14671"
    />
  </g>
  <path
    d="M65.3925 20.0851C65.3418 20.492 65.683 21.1168 65.6323 21.5238C73.697 24.3725 76.3888 27.0634 76.0338 29.9631C75.7294 32.5066 71.621 34.5923 64.6721 35.7114C61.7809 36.1693 58.484 36.4745 54.9842 36.5762C54.3755 36.5762 53.7162 36.6271 53.1075 36.6271C50.6728 36.678 48.1875 36.5762 45.6007 36.4745C43.1153 36.3219 40.5285 36.1184 37.9417 35.8132C35.7606 35.5588 33.6303 35.2536 31.6014 34.9484C29.5726 34.6432 27.5944 34.2362 25.7177 33.8292C25.3119 33.7275 24.9062 33.6766 24.5004 33.5749C23.9424 33.4731 23.3845 33.3205 22.8773 33.2188C9.58816 30.0139 1.67556 25.2321 2.08133 21.5694C2.43639 18.4663 7.96507 16.1263 17.5008 15.2615C17.7544 15.2615 18.3817 15.2895 18.6353 15.2895C18.6861 14.8825 19.0642 14.4467 19.1149 14.0906C18.8106 14.0906 17.9065 14.0915 17.6529 14.1423C7.61001 15.1089 1.37123 17.7541 0.914731 21.4677C0.356791 26.3004 9.94322 31.4892 24.2468 34.694C24.8554 34.8466 25.4641 34.9484 26.1235 35.101C26.5293 35.2027 26.935 35.2536 27.3408 35.3554C28.2538 35.5588 29.1668 35.7114 30.1305 35.8641C32.6159 36.271 35.152 36.678 37.7895 36.9323C38.8547 37.0341 39.8691 37.1358 40.9343 37.2376C41.7965 37.3393 42.7095 37.3902 43.5718 37.441C46.1586 37.6445 48.7454 37.6954 51.1801 37.7463C51.8902 37.7463 52.6003 37.7463 53.3104 37.7463C55.4914 37.6954 57.571 37.6445 59.5492 37.4919C61.4259 37.3393 63.2011 37.1358 64.875 36.8306C69.2878 36.1184 76.7439 34.2871 77.2004 30.0648C77.5554 26.6056 73.9645 23.1882 65.3925 20.0851Z"
    fill="white"
  />
  <path
    d="M14.3559 29.1484C14.5081 30.878 13.1893 32.4549 11.4648 32.5567C9.74022 32.6584 8.16784 31.3867 8.0664 29.6571C7.91424 27.9275 9.233 26.3505 10.9575 26.2487C12.6821 26.0961 14.2545 27.3679 14.3559 29.1484Z"
    fill="white"
  />
  <path
    d="M74.1568 22.3319C74.7654 23.9598 73.9032 25.7911 72.2801 26.4016C70.657 27.012 68.831 26.1472 68.2223 24.5193C67.6137 22.8915 68.4759 21.0601 70.099 20.4497C71.7221 19.8393 73.5481 20.7041 74.1568 22.3319Z"
    fill="white"
  />
  <path
    d="M52.9045 40.4419C54.6693 40.4419 56.0999 39.0071 56.0999 37.2371C56.0999 35.4671 54.6693 34.0322 52.9045 34.0322C51.1396 34.0322 49.709 35.4671 49.709 37.2371C49.709 39.0071 51.1396 40.4419 52.9045 40.4419Z"
    fill="white"
  />
  <path
    d="M12.1245 36.0671C12.1245 36.0671 12.0731 36.1186 12.1245 36.0671C12.0731 36.1186 12.0731 36.0671 12.1245 36.0671C12.0731 36.0157 12.0731 36.0157 12.1245 36.0671C12.0731 36.0157 12.0731 36.0157 12.1245 36.0671Z"
    fill="white"
  />
  <path
    d="M65.3925 32.0739C65.1896 32.43 65.1158 33.1565 64.9129 33.5126C71.2531 39.2101 72.2803 42.884 70.7587 45.3767C69.4399 47.5132 64.7735 47.6658 58.0275 45.7327C55.1871 44.9188 52.0931 43.7997 48.8469 42.3753C48.2889 42.1209 47.6803 41.8666 47.1223 41.6122C44.9413 40.5948 42.6588 39.4757 40.427 38.2548C38.246 37.0848 36.0142 35.7621 33.7825 34.3886C31.9058 33.2186 30.1305 32.0486 28.4567 30.8785C26.7321 29.7085 25.109 28.5385 23.5874 27.3685C23.2323 27.1141 22.928 26.8598 22.6237 26.6054C22.1672 26.2493 21.7614 25.8932 21.3049 25.588C10.6026 16.9909 5.4797 9.25855 7.3564 6.15544C8.87806 3.66279 14.2038 3.71366 22.2179 6.4098L24.6298 7.13678L25.589 6.41744L22.8773 5.44326C14.2546 2.59451 8.21868 2.54363 6.39269 5.545C3.8566 9.71638 10.2983 18.4661 21.8628 27.5211C22.3701 27.928 22.8773 28.2841 23.3845 28.6911C23.6888 28.9455 24.0439 29.1998 24.3989 29.4542C25.1598 30.0137 25.9206 30.5733 26.6814 31.1329C28.7103 32.5573 30.8913 33.9816 33.1738 35.406C34.0868 35.9656 34.9491 36.5252 35.8621 37.0339C36.6229 37.4917 37.3837 37.9495 38.1446 38.3565C40.427 39.6283 42.6588 40.7983 44.8906 41.8666C45.5499 42.1718 46.1586 42.477 46.818 42.7823C48.7961 43.6979 50.7236 44.5118 52.6003 45.224C54.3755 45.8854 56.0494 46.4449 57.6725 46.9028C61.9331 48.1237 69.4906 49.6498 71.6717 46.038C73.4977 43.0366 73.0007 39.2467 65.3925 32.0739Z"
    fill="white"
  />
  <path
    d="M10.3994 18.8221C12.1362 18.8221 13.5441 17.41 13.5441 15.6681C13.5441 13.9262 12.1362 12.5142 10.3994 12.5142C8.66259 12.5142 7.25464 13.9262 7.25464 15.6681C7.25464 17.41 8.66259 18.8221 10.3994 18.8221Z"
    fill="white"
  />
</svg>

<svg fill="none" height="49" viewBox="0 0 78 51" xmlns="http://www.w3.org/2000/svg"><mask height="51" id="mask0" mask-type="alpha" maskUnits="userSpaceOnUse" width="51" x="16" y="0"><circle cx="41.174" cy="25.84" fill="#C4C4C4" r="24.937"/></mask><g mask="url(#mask0)"><circle cx="41.174" cy="25.84" fill="#EC779B" r="24.937"/><path d="M50.083-1.053s-3.718 5.25-16.623 8.095c-12.905 2.845-9.187 8.095-8.97 9.624.216 1.529 3.72 3.064 14.22-5.03C49.21 3.54 51.615 1.571 56.865 1.355c5.25-.217-6.782-2.409-6.782-2.409zm-5.906-1.969S41.992 6.386 19.459 5.95c0 0 20.78-9.407 24.718-8.97zM16.615 9.667s5.47-1.313 5.47 1.092c0 2.405-2.845 7.002-7 7.002-4.153 0 1.53-8.094 1.53-8.094z" fill="#D14671"/><path d="M12.24 25.416s3.718-7.438 9.408-6.126c5.69 1.313 9.844 2.189 18.591-4.373 8.748-6.563 10.94-10.5 14.001-8.095 3.062 2.405-5.686 10.94-12.248 12.468-6.563 1.53-31.94 6.563-22.752 13.125 9.187 6.563 24.72-3.497 30.187-10.716 5.466-7.219 9.843-10.064 10.5-6.563.656 3.502-6.123 5.25-10.5 10.717-4.377 5.466-19.688 18.594-33.905 9.843-14.217-8.75-3.281-10.28-3.281-10.28z" fill="#D14671"/><path d="M58.834 5.073S52.708 16.666 45.49 19.73c-7.218 3.065-26.905 6.563-22.968 10.936 3.937 4.374 12.908.437 19.25-5.03 6.343-5.466 18.156-18.594 21.437-15.093 3.281 3.5-4.374-5.47-4.374-5.47zm7.875 13.125c-.657 0-7.219 1.312-12.469 5.686-5.25 4.374-9.843 16.846-33.032 19.25l4.158 3.718s-.437-1.968 10.28-4.593c10.716-2.625 14.657-7.656 20.783-15.31 6.126-7.656 10.28-3.721 10.28-3.721v-5.03z" fill="#D14671"/><path d="M27.554 50.134s3.062-5.907 8.968-5.907c5.906 0 15.97-7.655 19.467-12.685 3.498-5.03 4.184-7.455 5.47-5.25 3.061 5.25-6.562 9.404-12.688 15.094-6.126 5.69-13.817 3.13-15.53 9.844-1.713 6.713 22.558-13.19 24.5-14.221 3.718-1.969 5.907 0 5.907 1.969 0 1.968-7.659 15.313-15.75 15.313-8.092 0-20.127.656-20.127-3.281" fill="#D14671"/></g><path d="M65.392 20.085c-.05.407.291 1.032.24 1.439 8.065 2.848 10.757 5.54 10.402 8.44-.305 2.543-4.413 4.628-11.362 5.747-2.891.458-6.188.764-9.688.865-.608 0-1.268.051-1.877.051-2.434.051-4.92-.05-7.506-.153a137.467 137.467 0 01-7.66-.66c-2.18-.255-4.31-.56-6.34-.866-2.028-.305-4.007-.712-5.883-1.119-.406-.102-.812-.152-1.218-.254-.558-.102-1.116-.255-1.623-.356-13.289-3.205-21.201-7.987-20.796-11.65.355-3.103 5.884-5.443 15.42-6.307.253 0 .88.027 1.134.027.051-.406.43-.842.48-1.198-.304 0-1.208 0-1.462.051C7.61 15.11 1.37 17.754.915 21.468.357 26.3 9.943 31.489 24.247 34.694c.608.153 1.217.254 1.877.407.405.102.811.153 1.217.254.913.204 1.826.356 2.79.51 2.485.406 5.021.813 7.658 1.067 1.066.102 2.08.204 3.145.306.863.101 1.776.152 2.638.203 2.587.203 5.173.254 7.608.305h2.13c2.181-.05 4.261-.102 6.24-.254 1.876-.153 3.651-.356 5.325-.661 4.413-.713 11.869-2.544 12.325-6.766.355-3.46-3.236-6.877-11.808-9.98z" fill="#fff"/><path d="M14.356 29.148c.152 1.73-1.167 3.307-2.891 3.409-1.725.101-3.297-1.17-3.399-2.9-.152-1.73 1.167-3.306 2.891-3.408 1.725-.153 3.297 1.119 3.399 2.9zm59.801-6.816c.608 1.628-.254 3.46-1.877 4.07-1.623.61-3.449-.255-4.058-1.883-.608-1.627.254-3.459 1.877-4.07 1.623-.61 3.45.255 4.058 1.883zm-21.253 18.11a3.2 3.2 0 003.196-3.205 3.2 3.2 0 00-3.196-3.205 3.2 3.2 0 00-3.195 3.205 3.2 3.2 0 003.195 3.205zm-40.78-4.375s-.05.052 0 0c-.05.052-.05 0 0 0-.05-.051-.05-.051 0 0-.05-.051-.05-.051 0 0z" fill="#fff"/><path d="M65.392 32.074c-.202.356-.276 1.083-.48 1.439 6.341 5.697 7.368 9.371 5.847 11.864-1.32 2.136-5.986 2.289-12.731.356-2.84-.814-5.935-1.933-9.181-3.358-.558-.254-1.167-.508-1.725-.763-2.18-1.017-4.463-2.136-6.695-3.357-2.181-1.17-4.413-2.493-6.645-3.866a121.34 121.34 0 01-5.325-3.51 101.155 101.155 0 01-4.87-3.51c-.355-.255-.659-.51-.963-.764-.457-.356-.863-.712-1.32-1.017C10.604 16.991 5.48 9.258 7.357 6.155c1.522-2.492 6.848-2.441 14.862.255l2.412.727.959-.72-2.712-.974c-8.622-2.848-14.658-2.9-16.484.102-2.536 4.171 3.905 12.921 15.47 21.976.507.407 1.014.763 1.521 1.17.305.255.66.509 1.015.763l2.282 1.679a144.396 144.396 0 006.493 4.273c.913.56 1.775 1.12 2.688 1.628.76.458 1.522.916 2.283 1.322a122.654 122.654 0 006.746 3.51c.659.306 1.268.611 1.927.916a88.762 88.762 0 005.782 2.442c1.776.661 3.45 1.22 5.072 1.679 4.261 1.22 11.819 2.747 14-.865 1.826-3.001 1.329-6.791-6.28-13.964z" fill="#fff"/><path d="M10.4 18.822a3.15 3.15 0 003.144-3.154 3.15 3.15 0 00-3.145-3.154 3.15 3.15 0 00-3.144 3.154 3.15 3.15 0 003.144 3.154z" fill="#fff"/></svg>
